src/components/atoms/Icon/svgs/tv.svg

<svg width="24" height="24" viewBox="0 0 24 24" fill="none" xmlns="http://www.w3.org/2000/svg">
    <path
        d="M20 7H4C2.89543 7 2 7.89543 2 9V20C2 21.1046 2.89543 22 4 22H20C21.1046 22 22 21.1046 22 20V9C22 7.89543 21.1046 7 20 7Z"
        stroke="currentColor" stroke-width="2" stroke-linecap="round" stroke-linejoin="round" />
    <path d="M17 2L12 7L7 2" stroke="currentColor" stroke-width="2" stroke-linecap="round" stroke-linejoin="round" />
</svg>

<svg viewBox="0 0 24 24" fill="none" xmlns="http://www.w3.org/2000/svg">
    <path d="M20 7H4a2 2 0 00-2 2v11a2 2 0 002 2h16a2 2 0 002-2V9a2 2 0 00-2-2z" stroke="currentColor" stroke-width="2" stroke-linecap="round" stroke-linejoin="round"/>
    <path d="M17 2l-5 5-5-5" stroke="currentColor" stroke-width="2" stroke-linecap="round" stroke-linejoin="round"/>
</svg>
